icons/desktop/12/svg/makeup-12.svg

<svg width="12" height="12" viewBox="0 0 12 12" fill="none" xmlns="http://www.w3.org/2000/svg">
<g clip-path="url(#clip0_8069_32496)">
<path fill-rule="evenodd" clip-rule="evenodd" d="M6 2.5C7.38071 2.5 8.5 3.61929 8.5 5C8.5 6.38071 7.38071 7.5 6 7.5C4.61929 7.5 3.5 6.38071 3.5 5C3.5 3.61929 4.61929 2.5 6 2.5ZM6 3.75C5.30964 3.75 4.75 4.30964 4.75 5C4.75 5.69036 5.30964 6.25 6 6.25C6.69036 6.25 7.25 5.69036 7.25 5C7.25 4.30964 6.69036 3.75 6 3.75Z" fill="black"/>
<path fill-rule="evenodd" clip-rule="evenodd" d="M6 0C8.76118 0 11 2.23882 11 5C11 6.1971 10.5777 7.29559 9.87598 8.15625C9.92077 8.15986 9.96577 8.16226 10.0107 8.16602C10.8541 8.2363 11.5 8.94946 11.5 9.78906V10.2109C11.5 11.0412 10.8731 11.7601 10.0215 11.8311L10.0225 11.832C8.77824 11.9364 7.43356 12 6 12C4.76402 12 3.4217 11.9525 1.98926 11.833C1.14589 11.7627 0.5 11.0496 0.5 10.21V9.78809C0.5 8.95807 1.12625 8.23923 1.97754 8.16797C2.02588 8.16391 2.0744 8.1592 2.12305 8.15527C1.42195 7.29483 1 6.19689 1 5C1 2.23882 3.23882 0 6 0ZM6 9.24902C4.9525 9.24902 3.95391 9.28434 3.00879 9.34473L2.08203 9.41309C1.90163 9.42812 1.75 9.5843 1.75 9.78809V10.21C1.75 10.4063 1.90421 10.5711 2.09277 10.5869C3.48824 10.7034 4.79605 10.75 6 10.75C7.39644 10.75 8.70619 10.6876 9.91797 10.5859C10.0984 10.5709 10.25 10.4147 10.25 10.2109V9.78906C10.25 9.59272 10.0958 9.4279 9.90723 9.41211C8.51176 9.29566 7.20395 9.24902 6 9.24902ZM6 1.25C3.92918 1.25 2.25 2.92918 2.25 5C2.25 6.2559 2.86741 7.36762 3.81738 8.04883C4.51932 8.01707 5.2474 7.99902 6 7.99902C6.69342 7.99902 7.42024 8.01558 8.17773 8.0498C9.12988 7.36925 9.75 6.25741 9.75 5C9.75 2.92918 8.07082 1.25 6 1.25Z" fill="black"/>
</g>
<defs>
<clipPath id="clip0_8069_32496">
<rect width="12" height="12" fill="white"/>
</clipPath>
</defs>
</svg>

<!-- This Source Code Form is subject to the terms of the Mozilla Public
   - License, v. 2.0. If a copy of the MPL was not distributed with this
   - file, You can obtain one at http://mozilla.org/MPL/2.0/. -->
<svg xmlns="http://www.w3.org/2000/svg" width="12" height="12" fill="context-fill" fill-opacity="context-fill-opacity" viewBox="0 0 12 12">
    <g fill-rule="evenodd" clip-path="url(#clip0_8069_32496)" clip-rule="evenodd">
        <path d="M6 2.5a2.5 2.5 0 1 1 0 5 2.5 2.5 0 0 1 0-5m0 1.25a1.25 1.25 0 1 0 0 2.5 1.25 1.25 0 0 0 0-2.5" />
        <path d="M6 0a5 5 0 0 1 3.876 8.156l.135.01A1.63 1.63 0 0 1 11.5 9.789v.422c0 .83-.627 1.55-1.479 1.62l.002.001a48 48 0 0 1-8.034.001A1.63 1.63 0 0 1 .5 10.21v-.422c0-.83.626-1.549 1.478-1.62l.145-.013A5 5 0 0 1 6 0m0 9.249a47 47 0 0 0-2.991.096l-.927.068a.37.37 0 0 0-.332.375v.422a.38.38 0 0 0 .343.377 47 47 0 0 0 7.825-.001.37.37 0 0 0 .332-.375v-.422a.38.38 0 0 0-.343-.377A47 47 0 0 0 6 9.25M6 1.25a3.75 3.75 0 0 0-2.183 6.799 48 48 0 0 1 4.36 0A3.74 3.74 0 0 0 9.75 5 3.75 3.75 0 0 0 6 1.25" />
    </g>
</svg>
